assets/logos/ConectadasVetor.svg

<svg xmlns="http://www.w3.org/2000/svg" width="755" height="743" fill="none"><path stroke="#fff" stroke-linejoin="round" stroke-width="11" d="M178.5 25v234h159V21H496m-238 0v159"/><path stroke="#fff" stroke-linejoin="round" stroke-width="11" d="M181.5 338H496v237M257.5 417.5h159m0-161.5V100.5H654V23m79 234v81H575v263.5m-475-187V98m-79.5 78.5V335"/><path stroke="#fff" stroke-linejoin="round" stroke-width="11" d="M733.5 100.5v79H496V257m77.5 1.5H652"/><circle cx="179" cy="21" r="21" fill="#fff"/><circle cx="258" cy="21" r="21" fill="#fff"/><circle cx="258" cy="179" r="21" fill="#fff"/><circle cx="178" cy="338" r="21" fill="#fff"/><circle cx="258" cy="417" r="21" fill="#fff"/><circle cx="100" cy="417" r="21" fill="#fff"/><circle cx="21" cy="338" r="21" fill="#fff"/><circle cx="21" cy="180" r="21" fill="#fff"/><circle cx="100" cy="100" r="21" fill="#fff"/><circle cx="417" cy="417" r="21" fill="#fff"/><circle cx="496" cy="576" r="21" fill="#fff"/><circle cx="575" cy="602" r="21" fill="#fff"/><circle cx="496" cy="21" r="21" fill="#fff"/><circle cx="417" cy="259" r="21" fill="#fff"/><circle cx="496" cy="259" r="21" fill="#fff"/><circle cx="496" cy="259" r="21" fill="#fff"/><circle cx="575" cy="259" r="21" fill="#fff"/><circle cx="654" cy="259" r="21" fill="#fff"/><circle cx="654" cy="21" r="21" fill="#fff"/><circle cx="734" cy="101" r="21" fill="#fff"/><circle cx="733" cy="259" r="21" fill="#fff"/><path stroke="#fff" stroke-width="11" d="M624 735.5h24c19 0 22.5-31-3.5-31-25 0-24-30.5-.5-30.5h21.5M563 741v-31m42.5 31v-31m-42.5 0v-17.5c0-9.5 9.5-19.5 21.5-19.5s21 10.5 21 19.5V710m-42.5 0h42.5m-104-36v61.5H520c16 0 22.5-11 22.5-22.5v-17c0-9.5-5-22-22.5-22h-18.5ZM438 741v-31m42.5 31v-31m-42.5 0v-17.5c0-9.5 9.5-19.5 21.5-19.5s21 10.5 21 19.5V710m-42.5 0h42.5M405 741v-67m0 0h-25m25 0h25.5"/><path stroke="#fff" stroke-miterlimit="4.069" stroke-width="11" d="M368.501 686.687C358.5 667.688 336.75 669.689 329 685.188c-1.5 3.001-2 3.001-2 19 0 16-.063 15.875 2 20 7.751 15.5 29.501 18 39.501-1"/><path stroke="#fff" stroke-width="11" d="M315.5 674H275v30.75m40.5 30.75H275v-30.75m0 0h36m-99 36.249V696c0-20 15.5-23 21.5-23s21 4 21 23v44.999M149 691.5c0-4.833 7.5-18.5 21.5-18.5s20.911 13.5 20.911 18.5v26c0 5.853-7.411 19-20.911 19-13.5 0-21.5-11.893-21.5-19v-26Z"/><path stroke="#fff" stroke-miterlimit="4.069" stroke-width="11" d="M130.501 686.499C120.5 667.5 99.25 669.5 91.5 684.999 90 688 89 688 89 704s-.063 15.874 2 20c7.751 15.5 29.501 18 39.501-1"/></svg>

<svg width="755" height="743" viewBox="0 0 755 743" fill="none" xmlns="http://www.w3.org/2000/svg">
<path d="M178.5 25L178.5 259H337.5V21H496M258 21V180" stroke="white" stroke-width="11" stroke-linejoin="round"/>
<path d="M181.5 338H496V575M257.5 417.5H416.5M416.5 256V100.5H654V23" stroke="white" stroke-width="11" stroke-linejoin="round"/>
<path d="M733 257V338H575V601.5M100 414.5V98M20.5 176.5V335" stroke="white" stroke-width="11" stroke-linejoin="round"/>
<path d="M733.5 100.5V179.5H496V257" stroke="white" stroke-width="11" stroke-linejoin="round"/>
<path d="M573.5 258.5H652" stroke="white" stroke-width="11" stroke-linejoin="round"/>
<circle cx="179" cy="21" r="21" fill="white"/>
<circle cx="258" cy="21" r="21" fill="white"/>
<circle cx="258" cy="179" r="21" fill="white"/>
<circle cx="178" cy="338" r="21" fill="white"/>
<circle cx="258" cy="417" r="21" fill="white"/>
<circle cx="100" cy="417" r="21" fill="white"/>
<circle cx="21" cy="338" r="21" fill="white"/>
<circle cx="21" cy="180" r="21" fill="white"/>
<circle cx="100" cy="100" r="21" fill="white"/>
<circle cx="417" cy="417" r="21" fill="white"/>
<circle cx="496" cy="576" r="21" fill="white"/>
<circle cx="575" cy="602" r="21" fill="white"/>
<circle cx="496" cy="21" r="21" fill="white"/>
<circle cx="417" cy="259" r="21" fill="white"/>
<circle cx="496" cy="259" r="21" fill="white"/>
<circle cx="496" cy="259" r="21" fill="white"/>
<circle cx="575" cy="259" r="21" fill="white"/>
<circle cx="654" cy="259" r="21" fill="white"/>
<circle cx="654" cy="21" r="21" fill="white"/>
<circle cx="734" cy="101" r="21" fill="white"/>
<circle cx="733" cy="259" r="21" fill="white"/>
<path d="M624 735.5C630.5 735.5 629 735.5 648 735.5C667 735.5 670.5 704.5 644.5 704.5C619.5 704.5 620.5 674 644 674C649.5 674 665.5 674 665.5 674" stroke="white" stroke-width="11"/>
<path d="M563 741C563 734.5 563 717.5 563 710M605.5 741C605.5 734 605.5 720.5 605.5 710M563 710C563 702.5 563 702 563 692.5C563 683 572.5 673 584.5 673C596.5 673 605.5 683.5 605.5 692.5C605.5 701.5 605.5 701.5 605.5 710M563 710H605.5" stroke="white" stroke-width="11"/>
<path d="M501.5 674L501.5 735.5H520C536 735.5 542.5 724.5 542.5 713V696C542.5 686.5 537.5 674 520 674H501.5Z" stroke="white" stroke-width="11"/>
<path d="M438 741C438 734.5 438 717.5 438 710M480.5 741C480.5 734 480.5 720.5 480.5 710M438 710C438 702.5 438 702 438 692.5C438 683 447.5 673 459.5 673C471.5 673 480.5 683.5 480.5 692.5C480.5 701.5 480.5 701.5 480.5 710M438 710H480.5" stroke="white" stroke-width="11"/>
<path d="M405 741V674M405 674H380M405 674H430.5" stroke="white" stroke-width="11"/>
<path d="M368.501 686.687C358.5 667.688 336.75 669.689 329 685.188C327.5 688.189 327 688.189 327 704.188C327 720.188 326.937 720.063 329 724.188C336.751 739.688 358.501 742.188 368.501 723.188" stroke="white" stroke-width="11" stroke-miterlimit="4.0688"/>
<path d="M315.5 674H275V704.75M315.5 735.5H275V704.75M275 704.75H311" stroke="white" stroke-width="11"/>
<path d="M212 740.999C212 727.999 212 716 212 696C212 676 227.5 673 233.5 673C239.5 673 254.5 677 254.5 696C254.5 715 254.5 728 254.5 740.999" stroke="white" stroke-width="11"/>
<path d="M149 691.5C149 686.667 156.5 673 170.5 673C184.5 673 191.411 686.5 191.411 691.5V717.5C191.411 723.353 184 736.5 170.5 736.5C157 736.5 149 724.607 149 717.5L149 691.5Z" stroke="white" stroke-width="11"/>
<path d="M130.501 686.499C120.5 667.5 99.2496 669.5 91.5 684.999C89.9998 688 89 688 89 704C89 720 88.9368 719.874 91 724C98.7511 739.5 120.501 742 130.501 723" stroke="white" stroke-width="11" stroke-miterlimit="4.0688"/>
</svg>
